packages/foundations/assets/icons/functional/images/human/stroller_28.svg

<svg width="28" height="28" viewBox="0 0 28 28" fill="none" xmlns="http://www.w3.org/2000/svg">
<g clip-path="url(#clip0_185_1203)">
<path fill-rule="evenodd" clip-rule="evenodd" d="M20.1195 18.8125C22.0496 18.8125 23.6142 20.3795 23.6142 22.3125C23.6142 24.2455 22.0496 25.8125 20.1195 25.8125C18.1895 25.8125 16.6249 24.2455 16.6249 22.3125C16.6249 20.3795 18.1895 18.8125 20.1195 18.8125ZM10.5093 18.8125C12.4393 18.8125 14.0039 20.3795 14.0039 22.3125C14.0039 24.2455 12.4393 25.8125 10.5093 25.8125C8.57927 25.8125 7.01467 24.2455 7.01467 22.3125C7.01467 20.3795 8.57927 18.8125 10.5093 18.8125ZM20.1195 20.5625C19.1545 20.5625 18.3722 21.346 18.3722 22.3125C18.3722 23.279 19.1545 24.0625 20.1195 24.0625C21.0846 24.0625 21.8669 23.279 21.8669 22.3125C21.8669 21.346 21.0846 20.5625 20.1195 20.5625ZM10.5093 20.5625C9.54428 20.5625 8.76198 21.346 8.76198 22.3125C8.76198 23.279 9.54428 24.0625 10.5093 24.0625C11.4743 24.0625 12.2566 23.279 12.2566 22.3125C12.2566 21.346 11.4743 20.5625 10.5093 20.5625ZM17.4986 2.1875C22.7327 2.1875 26.25 5.6 26.25 10.675L26.248 10.7125L26.2358 11.0518C26.203 11.5532 26.1149 12.0499 25.9731 12.5326C25.6533 13.531 24.9736 15.3816 24.8224 15.75C24.3133 17.0538 23.0662 17.9187 21.6685 17.9375H8.93671C7.52053 17.9341 6.25637 17.0475 5.76883 15.7159L4.59463 12.082C4.50856 11.8157 4.55486 11.5243 4.71919 11.2979C4.88352 11.0716 5.14604 10.9376 5.42548 10.9375H7.899L5.92084 7.84087C5.76032 7.58963 5.48305 7.43759 5.18522 7.4375H2.62366C2.14115 7.4375 1.75 7.04575 1.75 6.5625C1.75 6.07925 2.14115 5.68749 2.62366 5.68749H5.18522C6.07925 5.68564 6.912 6.14228 7.39209 6.89762L9.971 10.9375H13.956L16.6695 2.786C16.7883 2.42853 17.1224 2.1875 17.4986 2.1875ZM24.0798 12.6875H6.62676L7.42179 15.148C7.66292 15.7754 8.26546 16.1889 8.93671 16.1875H21.6685C22.3571 16.1669 22.9648 15.7312 23.2062 15.085C23.3171 14.8164 23.7522 13.6369 24.0798 12.6875ZM18.125 3.95587L15.799 10.9375H24.4931C24.4992 10.85 24.5027 10.7581 24.5027 10.675C24.5027 6.01038 21.313 4.16412 18.125 3.95587Z" fill="#1A1C1F"/>
</g>
<defs>
<clipPath id="clip0_185_1203">
<rect width="28" height="28" fill="white"/>
</clipPath>
</defs>
</svg>

<svg xmlns="http://www.w3.org/2000/svg" width="28" height="28" fill="none"><g clip-path="url(#a)"><path fill="#1A1C1F" fill-rule="evenodd" d="M20.12 18.813a3.497 3.497 0 0 1 3.494 3.5c0 1.933-1.564 3.5-3.495 3.5a3.497 3.497 0 0 1-3.494-3.5c0-1.933 1.564-3.5 3.494-3.5m-9.61 0a3.497 3.497 0 0 1 3.494 3.5c0 1.933-1.565 3.5-3.495 3.5a3.497 3.497 0 0 1-3.494-3.5c0-1.933 1.564-3.5 3.494-3.5m9.61 1.75c-.966 0-1.748.783-1.748 1.75 0 .966.782 1.75 1.747 1.75s1.748-.784 1.748-1.75c0-.967-.782-1.75-1.748-1.75m-9.61 0c-.966 0-1.748.783-1.748 1.75 0 .966.782 1.75 1.747 1.75s1.748-.784 1.748-1.75c0-.967-.783-1.75-1.748-1.75m6.989-18.375c5.234 0 8.751 3.412 8.751 8.487l-.002.037-.012.34c-.033.501-.121.998-.263 1.48-.32.999-1 2.85-1.15 3.218a3.44 3.44 0 0 1-3.154 2.188H8.937a3.38 3.38 0 0 1-3.168-2.222l-1.174-3.634a.876.876 0 0 1 .83-1.145H7.9L5.921 7.842a.87.87 0 0 0-.736-.404H2.624a.874.874 0 0 1 0-1.75h2.561a2.61 2.61 0 0 1 2.207 1.21l2.579 4.04h3.985l2.714-8.151a.87.87 0 0 1 .829-.598m6.58 10.5H6.628l.795 2.46a1.62 1.62 0 0 0 1.515 1.04h12.732a1.7 1.7 0 0 0 1.537-1.103c.111-.269.546-1.448.874-2.398m-5.954-8.732-2.326 6.982h8.694c.006-.088.01-.18.01-.263 0-4.665-3.19-6.51-6.378-6.72" clip-rule="evenodd"/></g><defs><clipPath id="a"><path fill="#fff" d="M0 0h28v28H0z"/></clipPath></defs></svg>
